X:74
T:Lo Pauro Modeleno
M:2/4
L:1/8
N:Mouvt de ronde
N:La Bourre 4th edition 1929, page 76
Z:Steve Mansfield www.lesession.co.uk May 2012
K:Gm
G | G d d d | c2 d G | G d d d |
c2 !fermata! d B | A G A B | c2 (3 A B A | G2 F2 - |
F2 B2 | A G A B | c2 (3 A B A | !fermata! G4 |]

